X:1
T: Lavender
N:
C:Tune: "The Baker's Flower" by Bo Leyden
S:
A:
O:
R:
M:3/4
K:Em
I:speed 150
%W: A1
% voice 1 (1 lines, 31 notes)
K:Em
M:3/4
L:1/16
e6 f2 d2 B2 |e6 f2 d2 B2 |e4 g6 b2 |a2 f2 e2 f2 d4 |c6 d2 B2 A2 |c6 d2 B2 A2 |G2 E2 F6 G2 |A4 c4 d4 |
%W: A2
% voice 1 (1 lines, 30 notes)
e6 f2 d2 B2 |e2 B2 e2 f2 g2 b2 |a6 g2 f2 e2 |f12 |g4 e4 B4 |f4 d6 f2 |e4 B6 A2 |B2 A2 G2 F2 e2 d2 |
%W: B1
% voice 1 (1 lines, 23 notes)
e6 d2 e4 |f4 B4 f4 |g4 a6 b2 |f12 |e6 c2 G2 c2 |f6 d2 A2 d2 |e2 g2 f6 e2 |a12 |
%W: B2
% voice 1 (1 lines, 28 notes)
e6 B2 d2 f2 |e6 B2 d2 f2 |e2 d2 c2 d2 e2 B2 |A8A2 G A |B6 e2 c2 A2 |B6 e2 c2 A2 |B12|B12 ||
